X:1206
T:The Flogging Reel
M:C|
L:1/8
R:Reel
B:O'Neill's 1206
N:Collected by None Listed
Z:Transcribed by Trish O'Neil
K:G
(dc) \
|: BGA3GFG BGdG|BGA3GFG Bdgd|BGA3GFG BdcB|AGFG ABcB :|
|: Tgfgd BGBd|agfge fgaf|Tgfgd BcdB|AGFG ABcA|
Tgfge BGBd|Tgfge fgaf|bgaf gedB|AGFG ABcA :|
|Bdgd 3Bcd gd|Bdgd BGGB|Acfd 3ABc fc|Acfc AFFc|
|Bdgd 3Bcd gd|Bdef agfga|bgaf gedB|AGFG ABcA|]
